build/communication/WifiSolid.svg

<svg xmlns="http://www.w3.org/2000/svg" fill="none" viewBox="0 0 24 24" focusable="false"><path d="M0 0H24V24H0z"/><path fill="#74767B" fill-rule="evenodd" d="M3 12C3 7.02944 7.02944 3 12 3C16.9706 3 21 7.02944 21 12C21 16.9706 16.9706 21 12 21C7.02944 21 3 16.9706 3 12ZM13.9092 16.2031C14.0263 16.086 14.0272 15.8947 13.8989 15.7898C13.6724 15.6045 13.4194 15.4531 13.148 15.3407C12.7841 15.1899 12.394 15.1123 12 15.1123C11.606 15.1123 11.2159 15.1899 10.8519 15.3407C10.5806 15.4531 10.3276 15.6045 10.1011 15.7898C9.97279 15.8947 9.97365 16.086 10.0908 16.2031L11.7879 17.9002C11.905 18.0173 12.095 18.0173 12.2121 17.9002L13.9092 16.2031ZM10.7083 14.0808C11.1179 13.9112 11.5569 13.8238 12.0003 13.8238C12.4436 13.8238 12.8826 13.9112 13.2922 14.0808C13.7018 14.2505 14.074 14.4991 14.3875 14.8126C14.6413 15.0665 15.0528 15.0665 15.3067 14.8126C15.5605 14.5588 15.5605 14.1472 15.3067 13.8934C14.8725 13.4592 14.357 13.1148 13.7897 12.8798C13.2224 12.6448 12.6143 12.5238 12.0003 12.5238C11.3862 12.5238 10.7782 12.6448 10.2108 12.8798C9.64352 13.1148 9.12804 13.4592 8.69384 13.8934C8.44 14.1472 8.44 14.5588 8.69384 14.8126C8.94768 15.0665 9.35924 15.0665 9.61308 14.8126C9.92657 14.4991 10.2987 14.2505 10.7083 14.0808ZM12 11.2369C11.217 11.2369 10.4417 11.3911 9.71823 11.6908C8.9948 11.9904 8.33748 12.4297 7.78379 12.9833C7.52995 13.2372 7.11839 13.2372 6.86455 12.9833C6.61071 12.7295 6.61071 12.3179 6.86455 12.0641C7.53895 11.3897 8.33959 10.8547 9.22074 10.4898C10.1019 10.1248 11.0463 9.93691 12 9.93691C12.9538 9.93691 13.8982 10.1248 14.7794 10.4898C15.6605 10.8547 16.4611 11.3897 17.1355 12.0641C17.3894 12.3179 17.3894 12.7295 17.1355 12.9833C16.8817 13.2372 16.4701 13.2372 16.2163 12.9833C15.6626 12.4297 15.0053 11.9905 14.2819 11.6908C13.5584 11.3911 12.7831 11.2369 12 11.2369ZM8.72813 9.30084C9.76549 8.87116 10.8773 8.65 12.0002 8.65C13.123 8.65 14.2348 8.87116 15.2722 9.30085C16.3095 9.73053 17.2521 10.3603 18.0461 11.1543C18.2999 11.4081 18.7115 11.4081 18.9653 11.1543C19.2191 10.9005 19.2191 10.4889 18.9653 10.2351C18.0506 9.32038 16.9647 8.59482 15.7697 8.0998C14.5746 7.60478 13.2937 7.35 12.0002 7.35C10.7066 7.35 9.42572 7.60478 8.23064 8.0998C7.03556 8.59482 5.94969 9.32038 5.03501 10.2351C4.78117 10.4889 4.78117 10.9005 5.03501 11.1543C5.28885 11.4081 5.70041 11.4081 5.95425 11.1543C6.74821 10.3603 7.69077 9.73053 8.72813 9.30084Z"/></svg>

<svg xmlns="http://www.w3.org/2000/svg" fill="none" viewBox="0 0 24 24" focusable="false"><path fill="#74767B" fill-rule="evenodd" d="M3 12c0-4.98 4.02-9 9-9 4.97 0 9 4.02 9 9a9 9 0 0 1-9 9c-4.98 0-9-4.03-9-9m10.9 4.2c.12-.12.12-.31-.01-.42-.22-.18-.48-.33-.75-.44a2.8 2.8 0 0 0-1.14-.23c-.4 0-.79.07-1.15.23-.27.11-.53.26-.75.44-.13.11-.13.3-.01.42l1.69 1.7c.12.11.31.11.43 0zm-3.2-2.12c.41-.17.85-.26 1.3-.26.44 0 .88.09 1.29.26s.78.41 1.09.73c.26.25.67.25.92 0a.64.64 0 0 0 0-.92 4.62 4.62 0 0 0-3.3-1.37 4.622 4.622 0 0 0-3.31 1.37.64.64 0 0 0 0 .92c.25.25.66.25.92 0 .31-.32.68-.56 1.09-.73m1.3-2.85c-.79 0-1.56.16-2.29.46-.72.3-1.38.73-1.93 1.29-.26.25-.67.25-.92 0a.66.66 0 0 1 0-.92c.67-.68 1.47-1.21 2.36-1.58A7.3 7.3 0 0 1 12 9.93c.95 0 1.89.19 2.77.55.89.37 1.69.9 2.36 1.58.25.25.25.66 0 .92-.25.25-.66.25-.92 0-.55-.56-1.21-.99-1.93-1.29-.73-.3-1.5-.46-2.28-.46M8.72 9.3a8.57 8.57 0 0 1 9.32 1.85c.25.25.67.25.92 0s.25-.67 0-.92c-.91-.91-2-1.64-3.2-2.14A9.9 9.9 0 0 0 12 7.34c-1.3 0-2.58.26-3.77.75-1.2.5-2.29 1.23-3.2 2.14-.25.25-.25.67 0 .92s.67.25.92 0A8.6 8.6 0 0 1 8.72 9.3"/></svg>
